X: 14
T:Capt. McDonald's Favorite (#194)
M:9/8
L:1/8
S:O'Farrell's Pocket Companion 1804-10
K:G
g|dBB BAB GEE|dBG ABc e2 g|dBB B2 A GAB|BAG ABd e2:|
|:f|gfg a/2g/2fe dBB|gfg agf e2 f|gfg agf efg|dBG ABd e2:||

